X:1
%
T:It was a lover and his lass
C:Thomas Morley
M:C
L:1/8
B:Chappell - Popular Music of the Olden Times, vol. 1 (pp. 115-115)
Z:AK/Fiddler's Companion
K:G
G2|B3c d2d2|c2B2A2 AB|c2cd e2 ef|g6 fe|d2 Bc d4-|
d2 cB c2A2|G5 z2 d2|d2d2e2d2|c2B2A2A2|e4^c2A2|
d4 B2d2|g4 e2c2|e2d2c2B2|d4B2G2|c2B2A2d2|
dcBA G2g2|gfed c2e2|edcB A2c2|B3BA3A|G2G2d4|
B4 z4|z2d2g4|e2c2e4|d2c4B2|d4B2G2|c2B2A2d2|
dcBA G2g2|gfed c2e2|edcB A2c2|B3B A3A|G8||

